X: 1
T: \"A\"anisen aallot
T: Onezhskie volny
T: the Waves of Lake Onega
C: George de Godzinsky
R: waltz
M: 3/4
L: 1/8
%%staffsep 40
K: Em
"Intro"[|]\
"Em"[e6B6G6] | [B6G6E6] \
| "C7"[c6G6E6] | "F7"[G6_E6C6] \
| "Em"B2A2G2 | "B7"A2G2F2 \
"S"|| "Em"E2E2E2 | z2E2E2 \
| z2E2E2 | z2z2 ||
B,2 \
| "Em"B,4B,2 | E2F2G2 \
| F6 | E4G2 \
| F6 | "C"E3^DEF \
| "B7"^D6- | D4C2 \
| "B7"B,4B,2 | F2G2A2 \
| G6 | F6B,2 |
| "B7"c6 | B3FGA \
| "Em"G6- | G4E2 \
| "Am"A4B2 | "D7"c2B2A2 \
| "Bm"d6 | "Em"G4G2 \
| "Am"F4G2 | "B7"A2G2F2 \
| "Em"B6- | B4B2 |
| "Am"c4A2 | "B7"F2G2A2 \
| "Em"B4G2 | E2F2G2 \
| "F#7"F6 | "B7"G4^D2 \
| "Em"E6- | "fine"E2 \
|: e^def \
| "Em".g2z2.fe2 | z.d.c2.B2 |
| "Am".d2z.cA2- | A.F.G2.A2 \
|1"B7"c3BF2- | FGA2F2 \
| "Em"B6 | "(C7)"z2 \
:|2"B7"c3BB2- | BB,G2F2 \
| "Em"E6- | E2z2z2 ||[K:=f][K:Am]
| "E"e3ee2 | "Dm"fedcBA \
| "E7"^G2z2B2 | E6 \
[| "Am"A,6 | E6 \
| "E7"^G,6 | F6 \
| F2E2^D2 | E4^G,2 \
| "Am"A,6- | A,6 \
| "Dm"D6 | A6 |
| "Am"E6 | A6 \
| "C"[G2E2][G2E2][^G2E2] | "G7"[A4F4][F2D2] \
| "C7"[E6-C6] | "E7"[E4D4] \
|: E2 | "Am"A6 \
| c6 | "Dm"B6 \
| A6 | "E7"^G4F2 \
| E4^D2 | "Am"E6- | "E7"E6 |
| "Am"A,6 | E6 \
| "Dm"D6 | A6 \
| "E7"F2E2^D2 | E4 ^G,2 \
| "Am"A,6- | A,2z2 :| \
[K:Em] E2 \
| "Am"c2B2A2 | e4c2 \
| "Em"B6 | G6 \
| "Am"F2A2c2 | "B7"B4^D2 "D.S."[|]|]
%%sep 1 1 10cm
